X:72
T:Sadie at the Backdoor
C: Traditional
R: Reel
M:4/4
K:D
a2|:"D"a2g2f2e2|d4>e4|f3g fe d2|"C"=c4>A4|
|"D"f2 fg fe d2|"C"=c4 "G" B4|"A"=c2 B2 AF E2| "D" D4>:|
DE|:"D"F2F2 ED E2|F2E2D2 =c2-|"C"=c2 B2 "A"AF E2|"D" D3E D3 E|
|"D"F2F2ED3|"C"=c4 "G" B4|"D"f2>e2"G"d2B2|"A"AFE2"D"D4 :|


